images/icons/thumbs-up.svg

<svg width="64" height="64" viewBox="0 0 64 64" fill="none" xmlns="http://www.w3.org/2000/svg">
<path d="M58.2837 35.8363C59.38 33.98 60 32 60 29.6063C60 24.1044 55.3477 18.9088 49.2725 18.9088H44.7125C45.3275 17.3075 45.8187 15.3925 45.8187 13.0913C45.8187 3.992 41.1075 0 33.91 0C26.2091 0 26.6484 11.8666 24.94 13.575C22.0966 16.4184 18.7381 21.8809 16.345 24H4C1.79087 24 0 25.7909 0 28V58C0 60.2091 1.79087 62 4 62H12C13.8616 62 15.426 60.7282 15.8722 59.0062C21.4359 59.1314 25.2547 63.9987 38.0975 63.9987C39 63.9987 40 64 40.875 64C50.5146 64 54.8732 59.0721 54.9925 52.0838C56.6574 49.7806 57.5299 46.6935 57.16 43.71C58.3918 41.4035 58.868 38.6671 58.2837 35.8363ZM50.565 42.565C52.135 45.2062 50.7225 48.7412 48.8225 49.7612C49.785 55.8587 46.6215 57.9987 42.1825 57.9987H37.455C28.5001 57.9987 22.7014 53.2713 16 53.2713V30H17.365C20.91 30 25.8625 21.1387 29.1825 17.8175C32.7275 14.2725 31.5462 8.36375 33.91 6C39.8187 6 39.8187 10.1225 39.8187 13.0913C39.8187 17.9875 36.2738 20.1813 36.2738 24.9088H49.2725C51.9112 24.9088 53.9888 27.2725 54 29.6362C54.0112 31.9987 52.3975 34.3625 51.2163 34.3625C52.9024 36.1819 53.2626 40.017 50.565 42.565ZM11 54C11 55.6569 9.65687 57 8 57C6.34312 57 5 55.6569 5 54C5 52.3431 6.34312 51 8 51C9.65687 51 11 52.3431 11 54Z" fill="black"/>
</svg>

<svg width="64" height="64" viewBox="0 0 64 64" fill="none" xmlns="http://www.w3.org/2000/svg"><path d="M58.284 35.836C59.38 33.98 60 32 60 29.606c0-5.502-4.652-10.697-10.727-10.697h-4.56c.614-1.601 1.106-3.516 1.106-5.818C45.819 3.992 41.107 0 33.91 0c-7.7 0-7.262 11.867-8.97 13.575-2.843 2.843-6.202 8.306-8.595 10.425H4a4 4 0 0 0-4 4v30a4 4 0 0 0 4 4h8a4.002 4.002 0 0 0 3.872-2.994C21.436 59.131 25.255 64 38.097 64l2.778.001c9.64 0 13.998-4.928 14.117-11.916 1.665-2.303 2.538-5.39 2.168-8.374a11.609 11.609 0 0 0 1.124-7.874Zm-7.719 6.729c1.57 2.641.157 6.176-1.742 7.196C49.785 55.86 46.62 58 42.182 58h-4.728C28.5 57.999 22.701 53.27 16 53.27V30h1.365c3.545 0 8.498-8.861 11.818-12.183C32.727 14.273 31.546 8.364 33.91 6c5.909 0 5.909 4.123 5.909 7.091 0 4.897-3.545 7.09-3.545 11.818h12.998c2.64 0 4.717 2.364 4.728 4.727.011 2.363-1.602 4.726-2.784 4.726 1.686 1.82 2.047 5.655-.651 8.203ZM11 54a3 3 0 1 1-6 0 3 3 0 0 1 6 0Z" fill="#000"/></svg>
